X:27
T: SCHLOAP KINDKEN PROFOSS
N: K0110
O: Europa, Mitteleuropa, Deutschland, Westfalen, Ravensberg
R: Kinder -, Wiegen - Lied
M: 6/8
L: 1/16
K: F
 | A6G2F2G2 | F6z4
FA | c3dc2B2G2c2 | A6z4
AA | B3AB2G2A2BB | c2B2c2A2G2
A2 | B3AB2G2A2B2 | c2B2c2A4z2
A6G2F2G2 | F6z6

